X: 1
T: Santerin kahvila
C: Konsta Jylh\"a
S: https://thesession.org/tunes/6657/ 2015-9-17
M: 3/4
L: 1/8
K: Dmin
|:\
D>F A/F/D/F/ A/F/D | G>B d/B/G/B/ d/B/G |\
AA/c/ ec AA | [M:4/4]A/d/f/e/ d/c/B/A/ G/F/E/D/ ^CA, |\
[M:3/4]D>F A/F/D/F/ A/F/D |
G>B d/B/G/B/ d/B/G |\
AA/c/ eg f/e/f/g/ | ag/f/ fe/d/ ^cA |\
[1 [M:2/4][L:1/16]d4 d4 :|[2 [M:2/4]d4 d2e2 |\
|: [M:3/4][L:1/8]f>g f/c/A/B/ c/B/A/B/ | c/B/A/B/ cA F2 |
G>B dg b/a/g/a/ | b/a/g/a/ bg ec |\
B>d gg/a/ b/a/g | c>f a/g/f/g/ a/g/f |\
db/a/ g/a/g/f/ e/f/g/a/ |
g/f/e/f/ ge c2 |\
B>d gg/a/ b/a/g | c>f a/g/f/g/ a/g/f |\
db/a/ g/a/g/f/ e/f/g/a/ | g/f/e/f/ g2 f2 :| 
